src/_assets/wallet-icons/talisman-icon.svg

<svg
    viewBox="0 0 24 24"
    fill="none"
    xmlns="http://www.w3.org/2000/svg"
>
    <rect y="-0.000366211" width="24" height="24" rx="4" fill="#D5FF5C" />
    <path
        fillRule="evenodd"
        clipRule="evenodd"
        d="M16.5349 12.9161C16.6871 13.2475 17.135 13.3645 17.3929 13.1068L17.8651 12.6348C18.3535 12.1466 19.1453 12.1466 19.6337 12.6348C20.1221 13.1229 20.1221 13.9144 19.6337 14.4025L15.8097 18.2248C14.8921 19.3107 13.5198 20.0002 11.9865 20.0002C10.3851 20.0002 8.95942 19.2481 8.04384 18.0779L4.36629 14.402C3.87791 13.9139 3.87791 13.1224 4.36629 12.6343C4.85467 12.1461 5.64649 12.1461 6.13487 12.6343L6.60044 13.0996C6.85253 13.3516 7.29002 13.2382 7.43894 12.9144C7.46838 12.8504 7.48439 12.7817 7.48439 12.7112L7.48438 7.00083C7.48438 6.31016 8.04428 5.75026 8.73496 5.75026C9.42563 5.75026 9.98553 6.31016 9.98553 7.00083L9.98553 9.88917C9.98553 10.1379 10.2403 10.3067 10.4774 10.2318C10.6276 10.1844 10.736 10.0477 10.736 9.89025L10.736 5.25066C10.736 4.55999 11.2959 4.00009 11.9866 4.00009C12.6773 4.00009 13.2372 4.55999 13.2372 5.25066L13.2372 9.89042C13.2372 10.0478 13.3456 10.1844 13.4957 10.2318C13.7327 10.3067 13.9874 10.1379 13.9874 9.88933L13.9874 7.00083C13.9874 6.31016 14.5473 5.75026 15.2379 5.75026C15.9286 5.75026 16.4885 6.31016 16.4885 7.00083L16.4885 12.7088C16.4885 12.7807 16.5049 12.8508 16.5349 12.9161Z"
        fill="#FD4848"
    />
    <path
        d="M15.9885 15.5004C15.9885 15.5004 14.1969 18.0004 11.9867 18.0004C9.77655 18.0004 7.98486 15.5004 7.98486 15.5004C7.98486 15.5004 9.77655 13.0004 11.9867 13.0004C14.1969 13.0004 15.9885 15.5004 15.9885 15.5004Z"
        fill="#D5FF5C"
    />
    <path
        d="M13.8548 15.5004C13.8548 16.5315 13.0185 17.3674 11.9868 17.3674C10.955 17.3674 10.1188 16.5315 10.1188 15.5004C10.1188 14.4693 10.955 13.6333 11.9868 13.6333C13.0185 13.6333 13.8548 14.4693 13.8548 15.5004Z"
        stroke="#FD4848"
        strokeWidth="0.265831"
    />
    <path
        d="M13.1043 15.5C13.1043 16.1169 12.604 16.6171 11.9867 16.6171C11.3693 16.6171 10.869 16.1169 10.869 15.5C10.869 14.8831 11.3693 14.3829 11.9867 14.3829C12.604 14.3829 13.1043 14.8831 13.1043 15.5Z"
        stroke="#FD4848"
        strokeWidth="0.265831"
    />
    <path
        d="M14.6052 15.4997C14.6052 16.945 13.433 18.1168 11.9869 18.1168C10.5407 18.1168 9.36851 16.945 9.36851 15.4997C9.36851 14.0544 10.5407 12.8826 11.9869 12.8826C13.433 12.8826 14.6052 14.0544 14.6052 15.4997Z"
        stroke="#FD4848"
        strokeWidth="0.265831"
    />
    <path
        d="M15.3554 15.5001C15.3554 17.3596 13.8473 18.8671 11.9867 18.8671C10.1262 18.8671 8.61802 17.3596 8.61802 15.5001C8.61802 13.6405 10.1262 12.133 11.9867 12.133C13.8473 12.133 15.3554 13.6405 15.3554 15.5001Z"
        stroke="#FD4848"
        strokeWidth="0.265831"
    />
    <path
        d="M12.3537 15.4996C12.3537 15.7024 12.1893 15.8667 11.9866 15.8667C11.7838 15.8667 11.6195 15.7024 11.6195 15.4996C11.6195 15.2969 11.7838 15.1325 11.9866 15.1325C12.1893 15.1325 12.3537 15.2969 12.3537 15.4996Z"
        fill="#162BEB"
        stroke="#FD4848"
        strokeWidth="0.265831"
    />
    <ellipse cx="11.9866" cy="15.4996" rx="0.5" ry="0.5" fill="#FD4848" />
    <path
        d="M8.17098 15.5261C8.16387 15.5169 8.15724 15.5084 8.15107 15.5004C8.15724 15.4924 8.16387 15.4838 8.17098 15.4747C8.22308 15.4079 8.30029 15.312 8.39992 15.1966C8.59935 14.9658 8.88781 14.6582 9.24382 14.351C9.95994 13.7329 10.9297 13.1333 11.9867 13.1333C13.0437 13.1333 14.0135 13.7329 14.7296 14.351C15.0856 14.6582 15.3741 14.9658 15.5735 15.1966C15.6731 15.312 15.7503 15.4079 15.8024 15.4747C15.8095 15.4838 15.8162 15.4924 15.8223 15.5004C15.8162 15.5084 15.8095 15.5169 15.8024 15.526C15.7503 15.5929 15.6731 15.6888 15.5735 15.8041C15.3741 16.0349 15.0856 16.3425 14.7296 16.6497C14.0135 17.2678 13.0437 17.8674 11.9867 17.8674C10.9297 17.8674 9.95995 17.2678 9.24382 16.6497C8.88781 16.3425 8.59935 16.0349 8.39992 15.8041C8.30029 15.6888 8.22308 15.5929 8.17098 15.5261Z"
        stroke="#D5FF5C"
        strokeWidth="0.265831"
    />
</svg>

<svg xmlns="http://www.w3.org/2000/svg" fill="none" viewBox="0 0 24 24"><rect width="24" height="24" fill="#D5FF5C" rx="4"/><path fill="#FD4848" d="M16.535 12.916c.152.332.6.448.858.19l.472-.471a1.25 1.25 0 0 1 1.769 1.768l-3.824 3.822A5 5 0 0 1 11.986 20a5 5 0 0 1-3.942-1.922l-3.678-3.676a1.25 1.25 0 1 1 1.769-1.768l.465.466c.253.252.69.138.839-.186a.5.5 0 0 0 .045-.203v-5.71a1.25 1.25 0 0 1 2.502 0v2.888c0 .249.254.418.491.343a.36.36 0 0 0 .259-.342V5.25a1.25 1.25 0 0 1 2.501 0v4.64c0 .158.109.294.259.342.237.075.491-.094.491-.343V7.001a1.25 1.25 0 1 1 2.501 0v5.708q.001.109.047.207"/><path fill="#D5FF5C" d="M15.989 15.5S14.197 18 11.987 18s-4.002-2.5-4.002-2.5S9.777 13 11.987 13s4.002 2.5 4.002 2.5"/><path stroke="#FD4848" d="M13.855 15.5a1.867 1.867 0 1 1-3.735 0 1.867 1.867 0 0 1 3.735 0Z"/><path stroke="#FD4848" d="M13.104 15.5a1.117 1.117 0 1 1-2.234 0 1.117 1.117 0 0 1 2.234 0Z"/><path stroke="#FD4848" d="M14.605 15.5a2.618 2.618 0 1 1-5.235-.002 2.618 2.618 0 0 1 5.235.002Z"/><path stroke="#FD4848" d="M15.355 15.5a3.37 3.37 0 0 1-3.368 3.367 3.368 3.368 0 1 1 3.368-3.367Z"/><path fill="#162BEB" stroke="#FD4848" d="M12.354 15.5a.367.367 0 1 1-.734 0 .367.367 0 0 1 .734 0Z"/><circle cx="11.987" cy="15.5" r=".5" fill="#FD4848"/><path stroke="#D5FF5C" d="m8.171 15.526-.02-.026.02-.025a8.288 8.288 0 0 1 1.073-1.124c.716-.618 1.686-1.218 2.743-1.218s2.027.6 2.743 1.218a8.3 8.3 0 0 1 1.092 1.15l-.02.025a8.286 8.286 0 0 1-1.073 1.124c-.716.618-1.685 1.217-2.742 1.217s-2.027-.6-2.743-1.217a8.3 8.3 0 0 1-1.073-1.124Z"/></svg>
